resources/haticons/SVG/settings_phone.svg

<!-- Generated by IcoMoon.io -->
<svg version="1.1" xmlns="http://www.w3.org/2000/svg" width="24" height="24" viewBox="0 0 24 24">
<title>settings_phone</title>
<path d="M18.984 9h2.016v2.016h-2.016v-2.016zM20.016 15.516q0.422 0 0.703 0.281t0.281 0.703v3.516q0 0.422-0.281 0.703t-0.703 0.281q-7.031 0-12.023-4.992t-4.992-12.023q0-0.422 0.281-0.703t0.703-0.281h3.516q0.422 0 0.703 0.281t0.281 0.703v0.047q0 1.922 0.563 3.516 0.188 0.609-0.234 1.031l-2.203 2.203q0.938 1.781 2.883 3.727t3.727 2.883l2.203-2.203q0.328-0.328 0.703-0.328 0.141 0 0.328 0.094 1.688 0.563 3.563 0.563zM17.016 9v2.016h-2.016v-2.016h2.016zM12.984 9v2.016h-1.969v-2.016h1.969z"></path>
</svg>

<svg xmlns="http://www.w3.org/2000/svg" width="24" height="24"><path d="M18.984 9H21v2.016h-2.016V9zm1.032 6.516q.422 0 .703.281T21 16.5v3.516q0 .422-.281.703t-.703.281q-7.031 0-12.023-4.992T3.001 3.985q0-.422.281-.703t.703-.281h3.516q.422 0 .703.281t.281.703v.047q0 1.922.563 3.516.188.609-.234 1.031l-2.203 2.203q.938 1.781 2.883 3.727t3.727 2.883l2.203-2.203q.328-.328.703-.328.141 0 .328.094 1.688.563 3.563.563zm-3-6.516v2.016H15V9h2.016zm-4.032 0v2.016h-1.969V9h1.969z"/></svg>
